assets/images/svg/surface.svg

<svg width="98" height="156" viewBox="0 0 98 156" fill="none" xmlns="http://www.w3.org/2000/svg">
<g clip-path="url(#clip0_23_3)">
<path d="M21.6077 155.644L19.0237 154.152C18.2128 153.684 17.5509 152.54 17.5509 151.603V44.5335C17.5509 43.5935 18.2102 42.4544 19.0237 41.9845L90.7184 0.642553C91.532 0.172575 92.8504 0.172575 93.664 0.642553L96.2482 2.13213C97.0613 2.59946 97.7208 3.7412 97.7208 4.6785V111.751C97.7208 112.688 97.0613 113.83 96.2482 114.3L24.5532 155.644C23.7397 156.114 22.4211 156.112 21.6077 155.644Z" fill="#335863"/>
<path d="M97.7075 4.43952C97.6065 3.68013 96.9873 3.40132 96.2457 3.82882L24.5558 45.1787C24.1464 45.415 23.7876 45.8107 23.5137 46.2726L17.9816 43.0837C18.2474 42.6217 18.6143 42.2208 19.0237 41.9818L90.7184 0.639889C91.5294 0.172568 92.8504 0.172568 93.6666 0.639889L96.2457 2.12947C96.995 2.55696 97.6146 3.55799 97.7075 4.43952Z" fill="#335863"/>
<path d="M24.3033 155.761C23.4872 156.109 22.3441 156.069 21.6103 155.647L19.0237 154.152C18.2128 153.682 17.5536 152.54 17.5536 151.603V44.5308C17.5536 44.0635 17.7157 43.5458 17.9816 43.0837L23.5137 46.2727C23.2426 46.7347 23.0778 47.2578 23.0778 47.7277V154.797C23.0778 155.639 23.6094 156.027 24.3033 155.761Z" fill="#0A2B34"/>
<path d="M23.0804 47.7251V154.794C23.0804 155.732 23.7397 156.114 24.5532 155.644L96.2482 114.3C97.0613 113.83 97.7208 112.688 97.7208 111.751V4.6785C97.7208 3.74121 97.0613 3.36151 96.2482 3.82883L24.5532 45.1761C23.7397 45.646 23.0804 46.7851 23.0804 47.7251Z" fill="#24444C"/>
<path d="M6.33769 88.5387C5.41256 87.9865 1.11656 85.5461 0.893249 85.4187C0.212696 85.0047 -0.0318794 83.9984 0.600826 83.3183L17.5536 65.154L23.0778 68.3219L6.13301 86.4913C5.52159 87.1444 5.7183 88.09 6.33769 88.5387Z" fill="#335863"/>
<path d="M23.0804 68.3244L6.13031 86.4887C5.2823 87.3993 6.00005 88.8787 7.24154 88.7747L23.0804 87.4711V68.3244Z" fill="#24444C"/>
<path d="M60.3991 35.6411C68.7547 30.8219 75.5284 34.7277 75.5284 44.3662C75.5284 54.002 68.7547 65.7193 60.3991 70.539C52.0441 75.3551 45.2702 71.4495 45.2702 61.8137C45.2702 52.1779 52.0441 40.4577 60.3991 35.6411Z" fill="#33BFBF"/>
<path d="M60.293 43.2245C63.0048 41.6606 65.2032 42.9271 65.2032 46.055C65.2032 49.1802 63.0048 52.9824 60.293 54.5465C57.5842 56.1105 55.3853 54.8411 55.3853 51.716C55.3853 48.588 57.5842 44.7884 60.293 43.2245Z" fill="white"/>
<path d="M69.9669 59.8938C69.9669 54.7585 66.3567 52.677 61.9038 55.2449L59.118 56.8513C54.6651 59.4187 51.0549 65.6638 51.0549 70.799V72.201C51.8578 72.4691 52.7327 72.5991 53.655 72.6017C55.6859 72.6073 57.9721 71.9379 60.3991 70.539C64.0307 68.4437 67.3617 65.0479 69.9669 61.0862V59.8938Z" fill="white"/>
<path d="M50.8157 118.248L69.9858 107.194C70.7989 106.724 71.4583 107.104 71.4583 108.044V114.209C71.4583 115.149 70.7989 116.288 69.9858 116.758L50.8157 127.812C50.0023 128.282 49.343 127.902 49.343 126.963V120.797C49.343 119.857 50.0023 118.718 50.8157 118.248Z" fill="#33BFBF"/>
<path d="M41.4368 104.473L79.3647 82.6015C80.3426 82.0387 81.1348 82.4955 81.1348 83.6211V85.9152C81.1348 87.0409 80.3426 88.4112 79.3647 88.974L41.4341 110.848C40.4585 111.411 39.6663 110.954 39.6663 109.828V107.531C39.6663 106.406 40.4585 105.035 41.4368 104.473Z" fill="#F9F9F8"/>
<path d="M44.8476 92.4336L45.8391 91.86C46.0811 91.7193 46.2751 91.5363 46.4213 91.3028C46.5676 91.0719 46.6393 90.7716 46.6393 90.4051C46.6393 90.039 46.5676 89.8264 46.4213 89.7678C46.2751 89.7122 46.0811 89.752 45.8391 89.8927L44.8476 90.4637V92.4336ZM45.8711 88.6447C46.3868 88.3449 46.7882 88.3021 47.0753 88.5122C47.3598 88.7191 47.5033 89.1866 47.5033 89.906C47.5033 90.6284 47.3598 91.2631 47.0753 91.807C46.7882 92.354 46.3868 92.7736 45.8711 93.0739L44.8476 93.6632V95.8589C44.8476 95.9308 44.829 96.0022 44.7944 96.0741C44.7625 96.1485 44.72 96.1964 44.6748 96.2229L44.1564 96.5202L44.0341 96.5151C43.9996 96.4804 43.9836 96.4299 43.9836 96.3555V89.9987C43.9836 89.9274 43.9996 89.8529 44.0341 89.7811C44.0687 89.7097 44.1085 89.6592 44.1564 89.6327L45.8711 88.6447Z" fill="#F9F9F8"/>
<path d="M50.7094 90.1741L50.0049 87.7765L49.3004 90.9868L50.7094 90.1741ZM50.3558 86.0559C50.4249 86.0162 50.4781 86.0136 50.51 86.0508C50.5446 86.0881 50.5765 86.1543 50.6004 86.2497L52.1687 91.5684L52.1743 91.6322C52.1743 91.7035 52.1585 91.7754 52.1237 91.8468C52.089 91.9212 52.0492 91.9717 52.0012 91.9982L51.5414 92.2638C51.4566 92.3117 51.3954 92.3199 51.3632 92.2827L51.2918 92.1603L51.0178 91.2284L48.9947 92.3938L48.7182 93.6444C48.7049 93.7055 48.681 93.7718 48.6491 93.8493C48.6145 93.9232 48.556 93.9844 48.4683 94.0349L48.0084 94.3005L47.8861 94.2923C47.8516 94.2582 47.8356 94.2077 47.8356 94.1358L47.8436 94.0614L49.4094 86.9374C49.436 86.8099 49.4652 86.709 49.4998 86.6346C49.5343 86.5606 49.5849 86.502 49.654 86.4622L50.3558 86.0559Z" fill="#F9F9F8"/>
<path d="M54.5559 83.536C54.8433 83.3713 55.0934 83.2867 55.3113 83.2785C55.5292 83.2709 55.7099 83.3132 55.8559 83.4085C55.9999 83.5018 56.1086 83.6344 56.1856 83.8041C56.2602 83.9744 56.3025 84.1523 56.3107 84.3353C56.3132 84.4123 56.2974 84.4842 56.2627 84.5556C56.2255 84.6249 56.1831 84.6754 56.1377 84.7019L55.6885 84.9593C55.617 85.0017 55.5634 85.0124 55.5262 84.9915L55.4256 84.8773C55.3618 84.7498 55.2659 84.6621 55.1357 84.6142C55.0056 84.5688 54.8111 84.6193 54.5559 84.7682C54.4446 84.8319 54.341 84.9089 54.2399 85.0047C54.1389 85.0975 54.0511 85.201 53.9766 85.3126C53.902 85.4238 53.8439 85.5436 53.801 85.6654C53.7586 85.7878 53.7372 85.9127 53.7372 86.0376C53.7372 86.1885 53.7561 86.3001 53.7984 86.372C53.8382 86.4434 53.9077 86.4862 54.0031 86.4995C54.0991 86.5127 54.2267 86.502 54.3834 86.4704C54.5401 86.4383 54.7371 86.396 54.9709 86.3373C55.2286 86.2762 55.4491 86.2497 55.6354 86.2578C55.8217 86.266 55.9703 86.3134 56.0871 86.4067C56.2071 86.502 56.2949 86.6346 56.3505 86.8125C56.4092 86.9904 56.4383 87.2112 56.4383 87.4819C56.4383 87.7765 56.3959 88.0737 56.3107 88.3766C56.2255 88.6794 56.1035 88.9659 55.9437 89.2371C55.787 89.5078 55.593 89.7627 55.3618 90.0018C55.1332 90.2379 54.8749 90.4397 54.588 90.6044C54.3487 90.7426 54.12 90.8303 53.902 90.8675C53.6866 90.9042 53.4927 90.8884 53.3253 90.817C53.1553 90.7477 53.0195 90.6228 52.9185 90.4448C52.8149 90.27 52.7592 90.039 52.7459 89.7571C52.7403 89.6832 52.7562 89.6088 52.7934 89.5394C52.8281 89.468 52.8705 89.4201 52.9185 89.3936L53.3651 89.1362C53.4396 89.0933 53.4927 89.0801 53.5325 89.099C53.5698 89.1148 53.6019 89.1545 53.6285 89.2183C53.6576 89.2876 53.6948 89.3513 53.7372 89.412C53.7801 89.4731 53.8357 89.516 53.9102 89.5394C53.9817 89.5634 54.0725 89.5634 54.1812 89.545C54.2905 89.5236 54.4257 89.4681 54.588 89.3748C54.7156 89.3008 54.8407 89.2132 54.9601 89.1148C55.0796 89.0194 55.1837 88.9078 55.274 88.788C55.3618 88.6661 55.4333 88.5412 55.4894 88.4056C55.5451 88.2731 55.5742 88.1298 55.5742 87.9784C55.5742 87.8351 55.5425 87.7342 55.4838 87.6756C55.4256 87.62 55.3348 87.5935 55.2128 87.5986C55.0903 87.6012 54.9418 87.6251 54.7606 87.6705C54.5829 87.7128 54.3752 87.7582 54.1414 87.803C53.926 87.8453 53.7397 87.8617 53.5805 87.8453C53.4182 87.8295 53.288 87.7714 53.1844 87.6756C53.0782 87.5772 53.0012 87.4365 52.9506 87.2535C52.9001 87.0704 52.8735 86.8313 52.8735 86.5341C52.8735 86.239 52.9159 85.9417 53.0012 85.6445C53.0859 85.3468 53.2028 85.0654 53.3544 84.8028C53.5009 84.5372 53.6815 84.2956 53.8888 84.0754C54.0934 83.8546 54.317 83.6741 54.5559 83.536Z" fill="#F9F9F8"/>
<path d="M59.022 80.9604C59.3094 80.7958 59.5621 80.7111 59.7774 80.703C59.9954 80.6948 60.1786 80.7376 60.3221 80.8304C60.4686 80.9263 60.5773 81.0563 60.6518 81.226C60.7263 81.3958 60.7687 81.5768 60.7768 81.7598C60.7819 81.8368 60.7661 81.9112 60.7289 81.98C60.6916 82.0494 60.6492 82.0998 60.6038 82.1263L60.1546 82.3838C60.0832 82.4261 60.0296 82.4368 59.9923 82.4154L59.8943 82.2987C59.828 82.1738 59.732 82.0866 59.6019 82.0387C59.4717 81.9933 59.2803 82.0438 59.022 82.1901C58.9133 82.2563 58.8071 82.3333 58.7061 82.4287C58.605 82.522 58.5172 82.6254 58.4453 82.7371C58.3682 82.8482 58.31 82.9655 58.2671 83.0899C58.2248 83.2122 58.2033 83.3371 58.2033 83.462C58.2033 83.6129 58.2248 83.722 58.2646 83.7939C58.3044 83.8678 58.3738 83.9107 58.4693 83.9239C58.5652 83.9372 58.6928 83.9265 58.8495 83.8943C59.0088 83.8627 59.2032 83.8204 59.4396 83.7618C59.6948 83.7006 59.9153 83.6741 60.1016 83.6797C60.2879 83.6874 60.4389 83.7378 60.5563 83.8306C60.6732 83.9265 60.761 84.059 60.8167 84.2369C60.8754 84.4149 60.9044 84.6356 60.9044 84.9063C60.9044 85.201 60.8621 85.4982 60.7768 85.801C60.6916 86.1038 60.5696 86.3903 60.4124 86.6616C60.2532 86.9323 60.0618 87.1872 59.828 87.4263C59.5993 87.6623 59.341 87.8642 59.0542 88.0289C58.8148 88.167 58.5887 88.2547 58.3707 88.2914C58.1528 88.3286 57.9588 88.3103 57.7914 88.2414C57.624 88.1721 57.4882 88.0472 57.3846 87.8693C57.2836 87.6914 57.2254 87.463 57.2121 87.1816C57.209 87.1046 57.2254 87.0332 57.2596 86.9639C57.2968 86.8925 57.3366 86.8446 57.3846 86.8181L57.8338 86.5606C57.9058 86.5178 57.9588 86.5045 57.9986 86.5234C58.0385 86.5392 58.0681 86.579 58.0946 86.6427C58.1237 86.712 58.161 86.7758 58.2033 86.8364C58.2462 86.8976 58.3044 86.9399 58.3764 86.9639C58.4509 86.9878 58.5412 86.9878 58.6499 86.9695C58.7592 86.9481 58.8919 86.8925 59.0542 86.7992C59.1843 86.7253 59.3068 86.6402 59.4263 86.5392C59.5457 86.4408 59.6498 86.3322 59.7402 86.2124C59.828 86.0906 59.902 85.9657 59.9581 85.8301C60.0138 85.6975 60.0403 85.5543 60.0403 85.4029C60.0403 85.2596 60.0112 85.1587 59.9525 85.1C59.8918 85.0445 59.8009 85.018 59.6789 85.0205C59.5595 85.0256 59.4079 85.0496 59.2267 85.0949C59.0491 85.1398 58.8413 85.1826 58.6076 85.2275C58.3947 85.2698 58.2059 85.2861 58.0466 85.2698C57.8869 85.2514 57.7542 85.1959 57.6505 85.1C57.5469 85.0016 57.4673 84.8609 57.4168 84.6779C57.3662 84.4949 57.3397 84.2532 57.3397 83.9581C57.3397 83.6634 57.3821 83.3662 57.4673 83.069C57.552 82.7687 57.6689 82.4898 57.8205 82.2273C57.9696 81.9617 58.1477 81.72 58.3549 81.4998C58.5621 81.2791 58.7857 81.0986 59.022 80.9604Z" fill="#F9F9F8"/>
<path d="M63.9828 81.8103L63.4325 85.071C63.4111 85.1826 63.3846 85.278 63.3529 85.3575C63.3208 85.4401 63.2733 85.4982 63.2095 85.5354L62.6909 85.8331C62.6271 85.8699 62.5766 85.8704 62.5393 85.8275C62.5046 85.7852 62.4806 85.7189 62.4673 85.6287L61.6461 79.8904L61.641 79.8164C61.641 79.7446 61.6594 79.6701 61.6915 79.5982C61.7257 79.5269 61.7655 79.4764 61.8135 79.4499L62.2867 79.1761L62.4092 79.1654C62.4464 79.1843 62.473 79.2373 62.4862 79.3275L63.0232 83.1908L63.4963 80.2916C63.5071 80.2386 63.5254 80.1692 63.5576 80.079C63.5892 79.9888 63.6454 79.9199 63.7225 79.8746L64.2461 79.5717C64.3232 79.5269 64.3763 79.5345 64.4085 79.588L64.4692 79.7288L64.9424 82.0835L65.4824 77.6018C65.4931 77.4953 65.5196 77.4132 65.5569 77.3495L65.6789 77.222L66.152 76.9488L66.2745 76.9564C66.3087 76.9886 66.3251 77.0416 66.3251 77.1129L66.3195 77.1955L65.5007 83.8786C65.4875 83.9851 65.4635 84.0804 65.4262 84.163C65.392 84.2451 65.3415 84.3063 65.2746 84.3435L64.7566 84.6407C64.6928 84.6779 64.6448 84.6754 64.6131 84.6326C64.581 84.5877 64.5544 84.524 64.533 84.4363L63.9828 81.8103Z" fill="#F9F9F8"/>
<path d="M70.0705 77.3072C70.0547 76.8448 69.9536 76.5369 69.7729 76.3804C69.5923 76.2264 69.3503 76.2341 69.0522 76.4069C68.7547 76.5797 68.5153 76.8479 68.332 77.2114C68.1513 77.5754 68.0503 77.9975 68.0345 78.4808C68.0263 78.7357 68.0212 79.0145 68.0212 79.3199C68.0212 79.6248 68.0263 79.8985 68.0345 80.1427C68.0503 80.6077 68.1513 80.913 68.332 81.0639C68.5153 81.2153 68.7547 81.2046 69.0522 81.0323C69.3503 80.8626 69.5923 80.5944 69.7729 80.2355C69.9536 79.8746 70.0547 79.4524 70.0705 78.9692C70.0787 78.7168 70.0838 78.4354 70.0838 78.13C70.0838 77.8246 70.0787 77.5514 70.0705 77.3072ZM67.1703 78.9294C67.1836 78.5552 67.229 78.183 67.3086 77.8114C67.3883 77.4423 67.5052 77.0921 67.6568 76.7653C67.8109 76.4359 68.0023 76.1362 68.2335 75.8624C68.4647 75.5866 68.7363 75.3608 69.0522 75.1777C69.3636 74.9968 69.6346 74.9091 69.8658 74.9147C70.0945 74.9198 70.2885 74.9998 70.4426 75.1538C70.5942 75.3077 70.7111 75.5229 70.7938 75.7961C70.8734 76.0724 70.9214 76.3936 70.9346 76.7602C70.9372 76.882 70.9428 77.0176 70.9428 77.1665C70.9454 77.3174 70.9479 77.4719 70.9479 77.6335C70.9479 77.793 70.9454 77.9495 70.9428 78.101C70.9428 78.2549 70.9372 78.3931 70.9346 78.5205C70.9214 78.8973 70.876 79.2694 70.7963 79.6385C70.7167 80.0102 70.6024 80.3579 70.4482 80.6872C70.2941 81.0135 70.1027 81.3137 69.8684 81.587C69.6346 81.8582 69.3636 82.0835 69.0522 82.2645C68.7363 82.445 68.4647 82.5352 68.2335 82.5296C68.0023 82.5245 67.8109 82.445 67.6568 82.2961C67.5052 82.1447 67.3883 81.9296 67.3086 81.6507C67.229 81.3724 67.1836 81.0507 67.1703 80.6923C67.1678 80.5704 67.1622 80.4348 67.1622 80.2834C67.1596 80.1346 67.1596 79.9781 67.1596 79.819C67.1596 79.6569 67.1596 79.5004 67.1622 79.349C67.1622 79.1975 67.1678 79.0568 67.1703 78.9294Z" fill="#F9F9F8"/>
<path d="M72.963 76.1198L73.891 75.5866C74.1355 75.4459 74.3294 75.2679 74.4729 75.0528C74.6193 74.8377 74.6908 74.5481 74.6908 74.179C74.6908 73.8125 74.6193 73.608 74.4729 73.5657C74.3294 73.5259 74.1355 73.5764 73.891 73.7171L72.963 74.2509V76.1198ZM73.9226 72.4666C74.457 72.1587 74.8613 72.1158 75.1374 72.3366C75.4166 72.5568 75.5549 73.0054 75.5549 73.6825C75.5549 74.1607 75.483 74.6093 75.3395 75.0314C75.1961 75.451 74.9889 75.8226 74.7097 76.1469L75.5922 78.0688L75.6136 78.1672L75.5708 78.3426L75.4728 78.4644L74.9276 78.7779C74.8424 78.8259 74.7786 78.831 74.7388 78.7912L74.651 78.6719L73.8139 76.8611L72.963 77.352V79.6436C72.963 79.718 72.9472 79.7894 72.9125 79.8613C72.8778 79.9332 72.838 79.9806 72.79 80.0101L72.2719 80.3099L72.1494 80.2992C72.1147 80.2676 72.0989 80.2146 72.0989 80.1427V73.7859C72.0989 73.712 72.1147 73.6401 72.1494 73.5683C72.1841 73.4938 72.224 73.4464 72.2719 73.4199L73.9226 72.4666Z" fill="#F9F9F8"/>
<path d="M79.5107 71.9619C79.5025 71.7575 79.4759 71.577 79.431 71.423C79.3856 71.2691 79.3193 71.1467 79.2315 71.0646C79.1437 70.9795 79.0349 70.9397 78.9048 70.9397C78.769 70.9397 78.6123 70.9927 78.4286 71.0993L77.5726 71.5928V76.022L78.4607 75.5096C78.6363 75.4087 78.7874 75.2838 78.915 75.1349C79.0426 74.9866 79.1493 74.8219 79.2371 74.6384C79.3218 74.4579 79.3856 74.2642 79.431 74.0541C79.4759 73.8446 79.5025 73.632 79.5107 73.4169C79.5265 72.9234 79.5265 72.4375 79.5107 71.9619ZM78.4607 69.8513C78.7772 69.6678 79.0508 69.575 79.282 69.5668C79.5158 69.5617 79.7102 69.6306 79.8669 69.7794C80.0211 69.9252 80.1405 70.1404 80.2258 70.4274C80.3084 70.7139 80.3559 71.059 80.3748 71.4628C80.3932 71.9379 80.3932 72.4238 80.3748 72.9203C80.3559 73.3429 80.3084 73.7462 80.2258 74.1286C80.1405 74.5109 80.0236 74.8642 79.8695 75.191C79.7153 75.5147 79.5239 75.8068 79.2953 76.0668C79.0691 76.3273 78.8007 76.545 78.4924 76.7204L76.8815 77.6523L76.759 77.6416C76.7248 77.6095 76.7085 77.559 76.7085 77.4851V71.1284C76.7085 71.0565 76.7248 70.982 76.759 70.9107C76.7937 70.8388 76.8335 70.7883 76.8815 70.7618L78.4607 69.8513Z" fill="#F9F9F8"/>
</g>
<defs>
<clipPath id="clip0_23_3">
<rect width="98" height="156" fill="white"/>
</clipPath>
</defs>
</svg>

<svg xmlns="http://www.w3.org/2000/svg" width="98" height="156" fill="none"><g clip-path="url(#a)"><path fill="#335863" d="m21.608 155.644-2.584-1.492c-.811-.468-1.473-1.612-1.473-2.549V44.533c0-.94.66-2.079 1.473-2.549L90.718.643c.814-.47 2.132-.47 2.946 0l2.584 1.49c.813.466 1.473 1.608 1.473 2.545v107.073c0 .937-.66 2.079-1.473 2.549l-71.695 41.344c-.813.47-2.132.468-2.945 0Z"/><path fill="#335863" d="M97.707 4.44c-.1-.76-.72-1.039-1.461-.611l-71.69 41.35c-.41.236-.768.632-1.042 1.094l-5.532-3.19c.265-.461.632-.862 1.042-1.101L90.718.64c.811-.467 2.132-.467 2.949 0l2.579 1.49c.749.427 1.369 1.428 1.462 2.31Z"/><path fill="#0A2B34" d="M24.303 155.761c-.816.348-1.959.308-2.693-.114l-2.586-1.495c-.811-.47-1.47-1.612-1.47-2.549V44.531c0-.468.162-.985.428-1.447l5.532 3.189c-.271.462-.436.985-.436 1.455v107.069c0 .842.531 1.23 1.225.964Z"/><path fill="#24444C" d="M23.08 47.725v107.069c0 .938.66 1.32 1.473.85L96.248 114.3c.813-.47 1.473-1.612 1.473-2.549V4.678c0-.937-.66-1.316-1.473-.85L24.553 45.177c-.813.47-1.473 1.61-1.473 2.55Z"/><path fill="#335863" d="M6.338 88.539c-.925-.552-5.221-2.993-5.445-3.12-.68-.414-.925-1.42-.292-2.1l16.953-18.165 5.524 3.168-16.945 18.17c-.611.652-.415 1.598.205 2.047Z"/><path fill="#24444C" d="M23.08 68.324 6.13 86.49c-.848.91-.13 2.39 1.112 2.286L23.08 87.47V68.324Z"/><path fill="#33BFBF" d="M60.4 35.641c8.355-4.82 15.128-.913 15.128 8.725 0 9.636-6.773 21.353-15.129 26.173-8.355 4.816-15.129.91-15.129-8.725 0-9.636 6.774-21.356 15.13-26.173Z"/><path fill="#fff" d="M60.293 43.224c2.712-1.563 4.91-.297 4.91 2.831 0 3.125-2.198 6.927-4.91 8.492-2.709 1.564-4.908.294-4.908-2.831 0-3.128 2.2-6.928 4.908-8.492ZM69.967 59.894c0-5.136-3.61-7.217-8.063-4.65l-2.786 1.607c-4.453 2.568-8.063 8.813-8.063 13.948v1.402a8.27 8.27 0 0 0 2.6.4c2.03.006 4.317-.663 6.744-2.062 3.632-2.095 6.963-5.491 9.568-9.453v-1.192Z"/><path fill="#33BFBF" d="m50.816 118.248 19.17-11.054c.813-.47 1.472-.09 1.472.85v6.165c0 .94-.66 2.079-1.472 2.549l-19.17 11.054c-.814.47-1.473.09-1.473-.849v-6.166c0-.94.66-2.079 1.473-2.549Z"/><path fill="#F9F9F8" d="m41.437 104.473 37.928-21.871c.978-.563 1.77-.106 1.77 1.02v2.293c0 1.126-.792 2.496-1.77 3.059l-37.93 21.874c-.977.563-1.769.106-1.769-1.02v-2.297c0-1.125.793-2.496 1.77-3.058ZM44.848 92.434l.991-.574a1.65 1.65 0 0 0 .582-.557c.147-.231.218-.531.218-.898 0-.366-.071-.579-.218-.637-.146-.056-.34-.016-.582.125l-.991.57v1.97Zm1.023-3.79c.516-.3.917-.342 1.204-.132.285.207.428.675.428 1.394 0 .722-.143 1.357-.428 1.901a3.097 3.097 0 0 1-1.204 1.267l-1.023.59v2.195a.494.494 0 0 1-.054.215.305.305 0 0 1-.12.149l-.518.297-.122-.005c-.034-.035-.05-.085-.05-.16V90c0-.072.016-.146.05-.218a.322.322 0 0 1 .122-.148l1.715-.988ZM50.71 90.174l-.705-2.398-.705 3.21 1.41-.812Zm-.354-4.118c.069-.04.122-.042.154-.005a.465.465 0 0 1 .09.199l1.569 5.318.005.064a.485.485 0 0 1-.05.215.316.316 0 0 1-.123.151l-.46.266c-.084.048-.146.056-.178.019l-.071-.123-.274-.932-2.023 1.166-.277 1.25a1.254 1.254 0 0 1-.069.205.42.42 0 0 1-.18.186l-.46.266-.123-.009c-.034-.034-.05-.084-.05-.156l.008-.075 1.565-7.124c.027-.127.056-.228.09-.302a.376.376 0 0 1 .155-.173l.702-.406ZM54.556 83.536c.287-.165.537-.25.755-.258a.913.913 0 0 1 .545.13.899.899 0 0 1 .33.396c.074.17.117.348.125.531a.458.458 0 0 1-.048.22.365.365 0 0 1-.125.147l-.45.257c-.071.043-.125.053-.162.032l-.1-.114a.513.513 0 0 0-.29-.263c-.13-.045-.325.005-.58.154-.111.064-.215.14-.316.237a1.697 1.697 0 0 0-.263.308 1.57 1.57 0 0 0-.176.352 1.134 1.134 0 0 0-.064.373c0 .15.02.262.061.334.04.071.11.114.205.127a1.2 1.2 0 0 0 .38-.029c.157-.032.354-.074.588-.133a2.47 2.47 0 0 1 .664-.08.752.752 0 0 1 .452.15c.12.095.208.228.263.406.06.177.088.398.088.669 0 .294-.042.592-.127.895-.086.302-.208.589-.367.86-.157.27-.351.526-.582.765a3.497 3.497 0 0 1-.774.602c-.24.139-.468.226-.686.264-.215.036-.41.02-.577-.051a.822.822 0 0 1-.407-.372c-.103-.175-.159-.406-.172-.688a.395.395 0 0 1 .047-.218.317.317 0 0 1 .126-.145l.446-.258c.075-.043.128-.056.167-.037.038.016.07.055.097.12.029.069.066.132.108.193a.323.323 0 0 0 .173.127.57.57 0 0 0 .271.006c.11-.021.245-.077.407-.17.128-.074.253-.162.372-.26a1.81 1.81 0 0 0 .53-.71c.055-.132.084-.275.084-.427 0-.143-.032-.244-.09-.302-.058-.056-.15-.082-.271-.077a2.097 2.097 0 0 0-.452.072 14.32 14.32 0 0 1-.62.132c-.215.042-.401.059-.56.042a.658.658 0 0 1-.397-.17.878.878 0 0 1-.233-.421 2.775 2.775 0 0 1-.078-.72c0-.295.043-.592.128-.89.085-.297.202-.579.353-.841.147-.266.328-.507.535-.728.204-.22.428-.4.667-.539ZM59.022 80.96c.287-.164.54-.249.755-.257a.922.922 0 0 1 .545.127.881.881 0 0 1 .33.396c.074.17.117.35.125.534a.401.401 0 0 1-.048.22.365.365 0 0 1-.125.146l-.45.258c-.07.042-.124.053-.162.031l-.098-.116a.53.53 0 0 0-.292-.26c-.13-.046-.322.005-.58.151a1.874 1.874 0 0 0-.316.239 1.597 1.597 0 0 0-.26.308 1.433 1.433 0 0 0-.179.353 1.135 1.135 0 0 0-.064.372c0 .15.022.26.062.332.04.074.109.117.204.13.096.013.224.002.38-.03.16-.031.354-.074.59-.132.256-.061.476-.088.663-.082a.763.763 0 0 1 .454.15.826.826 0 0 1 .26.407c.06.178.088.399.088.67 0 .294-.042.591-.127.894a3.72 3.72 0 0 1-.365.86c-.159.271-.35.526-.584.765a3.504 3.504 0 0 1-.774.603c-.24.138-.465.226-.683.262a1.042 1.042 0 0 1-.58-.05.845.845 0 0 1-.406-.372c-.101-.178-.16-.406-.173-.687a.442.442 0 0 1 .048-.218.332.332 0 0 1 .125-.146l.449-.257c.072-.043.125-.057.165-.038.04.016.07.056.096.12.029.069.066.133.108.193a.335.335 0 0 0 .173.128.585.585 0 0 0 .274.005c.11-.02.242-.076.404-.17.13-.074.253-.159.372-.26.12-.098.224-.207.314-.327.088-.121.162-.246.218-.382.056-.132.082-.276.082-.427 0-.143-.029-.244-.087-.303-.061-.055-.152-.082-.274-.08a2.34 2.34 0 0 0-.452.075c-.178.045-.386.088-.62.133-.212.042-.401.058-.56.042a.68.68 0 0 1-.396-.17.899.899 0 0 1-.234-.422 2.784 2.784 0 0 1-.077-.72c0-.295.042-.592.127-.889.085-.3.202-.58.354-.842a3.7 3.7 0 0 1 .534-.727c.207-.22.43-.401.667-.54ZM63.983 81.81l-.55 3.261a1.587 1.587 0 0 1-.08.287.336.336 0 0 1-.144.177l-.518.298c-.064.037-.114.037-.152-.005a.409.409 0 0 1-.072-.2l-.82-5.738-.006-.074a.54.54 0 0 1 .05-.218.319.319 0 0 1 .122-.148l.474-.274.122-.01c.037.018.064.071.077.162l.537 3.863.473-2.9c.011-.052.03-.122.062-.212a.373.373 0 0 1 .164-.204l.524-.303c.077-.045.13-.038.163.016l.06.14.473 2.356.54-4.482a.615.615 0 0 1 .075-.252l.122-.128.473-.273.123.007c.034.033.05.086.05.157l-.005.082-.82 6.684a.985.985 0 0 1-.074.284.353.353 0 0 1-.151.18l-.518.298c-.064.037-.112.034-.144-.008a.57.57 0 0 1-.08-.197l-.55-2.626ZM70.07 77.307c-.015-.462-.116-.77-.297-.927-.18-.154-.423-.146-.72.027-.298.173-.538.44-.721.804-.18.364-.282.787-.297 1.27a26.035 26.035 0 0 0 0 1.662c.015.465.116.77.297.92.183.152.423.142.72-.03.298-.17.54-.439.72-.797.182-.361.283-.784.298-1.267a25.922 25.922 0 0 0 0-1.662Zm-2.9 1.622a6.41 6.41 0 0 1 .139-1.118c.08-.369.196-.719.348-1.046.154-.33.345-.629.577-.903a3.05 3.05 0 0 1 .818-.684c.312-.181.583-.269.814-.263a.813.813 0 0 1 .577.239c.151.154.268.369.35.642.08.276.128.598.142.964.002.122.008.258.008.406a26.755 26.755 0 0 1 0 .935c0 .154-.006.292-.008.42a6.332 6.332 0 0 1-.139 1.117c-.08.372-.194.72-.348 1.05a3.991 3.991 0 0 1-.58.899 3.175 3.175 0 0 1-.816.677c-.316.181-.587.271-.819.266a.826.826 0 0 1-.576-.234c-.152-.151-.269-.366-.348-.645-.08-.279-.125-.6-.139-.959-.002-.122-.008-.257-.008-.409-.002-.148-.002-.305-.002-.464 0-.162 0-.319.002-.47 0-.151.006-.292.008-.42ZM72.963 76.12l.928-.533a1.71 1.71 0 0 0 .582-.534c.146-.215.218-.505.218-.874 0-.367-.072-.571-.218-.613-.144-.04-.338.01-.582.151l-.928.534v1.869Zm.96-3.653c.534-.308.938-.351 1.214-.13.28.22.418.668.418 1.346 0 .478-.072.926-.216 1.348-.143.42-.35.792-.63 1.116l.883 1.922.022.098-.043.176-.098.121-.545.314c-.086.048-.15.053-.19.013l-.087-.12-.837-1.81-.851.491v2.292a.49.49 0 0 1-.05.217.337.337 0 0 1-.123.15l-.518.299-.123-.01c-.034-.032-.05-.085-.05-.157v-6.357c0-.074.016-.146.05-.218a.307.307 0 0 1 .123-.148l1.65-.953ZM79.51 71.962a2.265 2.265 0 0 0-.079-.539.788.788 0 0 0-.2-.358.449.449 0 0 0-.326-.125c-.136 0-.293.053-.476.16l-.856.493v4.429l.888-.512c.175-.101.326-.226.454-.375.128-.148.234-.313.322-.497.085-.18.149-.374.194-.584a3.71 3.71 0 0 0 .08-.637c.016-.494.016-.98 0-1.455Zm-1.05-2.11c.317-.184.59-.277.822-.285a.787.787 0 0 1 .585.212c.154.146.273.361.359.648.082.287.13.632.149 1.036.018.475.018.96 0 1.457a7.26 7.26 0 0 1-.15 1.209 5.064 5.064 0 0 1-.355 1.062 3.781 3.781 0 0 1-.575.876c-.226.26-.494.478-.803.653l-1.61.932-.123-.01c-.034-.032-.05-.083-.05-.157v-6.357c0-.072.016-.146.05-.217a.32.32 0 0 1 .123-.15l1.579-.91Z"/></g><defs><clipPath id="a"><path fill="#fff" d="M0 0h98v156H0z"/></clipPath></defs></svg>
